img/measured-marketing/sublime-text.svg

<svg xmlns="http://www.w3.org/2000/svg" width="725" height="531" viewBox="367.5 0 725 531" enable-background="new 367.5 0 725 531"><path fill="#ECF0F1" d="M538.983 524.529c0 1.486 1.205 2.691 2.692 2.691h546.102c1.486 0 2.691-1.205 2.691-2.691v-400.524c0-1.487-1.205-2.692-2.691-2.692h-546.101c-1.487 0-2.692 1.205-2.692 2.692v400.524h-.001z"/><path fill="#21262E" d="M538.983 167.251h551.485v343.583h-551.485v-343.583z"/><path fill="#13161B" d="M538.983 167.251h551.485v44.117h-551.485v-44.117z"/><path fill="#B6B7BB" d="M603.711 276.383h338.912v10.764h-338.912v-10.764zm0-21.969h302.562v10.764h-302.562v-10.764zm.001 44.85h397.755v10.764h-397.755v-10.764zm-.001 21.132h213.639v10.764h-213.639v-10.764zm-.002 22.315h302.564v8.609h-302.564v-8.609zm.003 20.043h444.048v9.713h-444.048v-9.713zm0 21.219h380.495v10.764h-380.495v-10.764zm0 21.312h408.739v10.764h-408.739v-10.764zm.002 21.132h424.823v10.763h-424.823v-10.763zm-.003 18.284h327.146v10.764h-327.146v-10.764z"/><path fill="#ECF0F1" d="M369.531 406.996c0 1.486 1.205 2.691 2.691 2.691h546.102c1.488 0 2.693-1.205 2.693-2.691v-400.524c0-1.487-1.205-2.692-2.693-2.692h-546.101c-1.486 0-2.691 1.206-2.691 2.692v400.524h-.001z"/><path fill="#21262E" d="M369.531 49.718h551.486v343.584h-551.486v-343.584z"/><path fill="#13161B" d="M369.531 49.718h551.486v44.117h-551.486v-44.117z"/><path fill="#FAB814" d="M417.543 27.002c0 3.334-2.705 6.037-6.041 6.037-3.334 0-6.039-2.703-6.039-6.037 0-3.338 2.704-6.041 6.039-6.041 3.336 0 6.041 2.703 6.041 6.041z"/><path fill="#FF5848" d="M400.908 27.002c0 3.334-2.704 6.037-6.039 6.037s-6.039-2.703-6.039-6.037c0-3.338 2.704-6.041 6.039-6.041s6.039 2.703 6.039 6.041z"/><path fill="#12CB35" d="M434.175 27.002c0 3.334-2.704 6.037-6.041 6.037-3.334 0-6.038-2.703-6.038-6.037 0-3.338 2.704-6.041 6.038-6.041 3.337 0 6.041 2.703 6.041 6.041z"/><path fill="#B6B7BB" d="M423.623 113.508h72.588v10.764h-72.588v-10.764zm10.635 45.342h338.912v10.763h-338.912v-10.763zm0-21.969h302.562v10.764h-302.562v-10.764zm.002 44.849h397.758v10.764h-397.758v-10.764zm-.002 21.132h213.64v10.764h-213.64v-10.764zm-.002 22.316h302.564v8.606h-302.564v-8.606zm.004 20.043h444.047v9.713h-444.047v-9.713zm0 21.218h380.494v10.764h-380.494v-10.764zm0 21.313h408.738v10.764h-408.738v-10.764zm.001 21.133h424.823v10.762h-424.822l-.001-10.762zm-.003 18.283h327.145v10.764h-327.145v-10.764z"/></svg>

<?xml version="1.0" encoding="utf-8"?>
<!-- Generator: Adobe Illustrator 16.0.4, SVG Export Plug-In . SVG Version: 6.00 Build 0)  -->
<!DOCTYPE svg PUBLIC "-//W3C//DTD SVG 1.1//EN" "http://www.w3.org/Graphics/SVG/1.1/DTD/svg11.dtd">
<svg version="1.1" id="Layer_1" xmlns="http://www.w3.org/2000/svg" xmlns:xlink="http://www.w3.org/1999/xlink" x="0px" y="0px"
	 width="725px" height="531px" viewBox="367.5 0 725 531" enable-background="new 367.5 0 725 531" xml:space="preserve">
<g>
	<path fill="#ECF0F1" d="M538.983,524.529c0,1.486,1.205,2.691,2.692,2.691h546.102c1.486,0,2.691-1.205,2.691-2.691V124.005
		c0-1.487-1.205-2.692-2.691-2.692H541.676c-1.487,0-2.692,1.205-2.692,2.692V524.529L538.983,524.529z"/>
	<path fill="#21262E" d="M538.983,167.251h551.485v343.583H538.983V167.251z"/>
	<path fill="#13161B" d="M538.983,167.251h551.485v44.117H538.983V167.251z"/>
	<path fill="#B6B7BB" d="M603.711,276.383h338.912v10.764H603.711V276.383z M603.711,254.414h302.562v10.764H603.711V254.414z
		 M603.712,299.264h397.755v10.764H603.712V299.264z M603.711,320.396H817.35v10.764H603.711V320.396z M603.709,342.711h302.564
		v8.609H603.709V342.711z M603.712,362.754h444.048v9.713H603.712V362.754z M603.712,383.973h380.495v10.764H603.712V383.973z
		 M603.712,405.285h408.739v10.764H603.712V405.285z M603.714,426.417h424.823v10.763H603.714V426.417z M603.711,444.701h327.146
		v10.764H603.711V444.701z"/>
	<path fill="#ECF0F1" d="M369.531,406.996c0,1.486,1.205,2.691,2.691,2.691h546.102c1.488,0,2.693-1.205,2.693-2.691V6.472
		c0-1.487-1.205-2.692-2.693-2.692H372.223c-1.486,0-2.691,1.206-2.691,2.692V406.996L369.531,406.996z"/>
	<path fill="#21262E" d="M369.531,49.718h551.486v343.584H369.531V49.718z"/>
	<path fill="#13161B" d="M369.531,49.718h551.486v44.117H369.531V49.718z"/>
	<path fill="#FAB814" d="M417.543,27.002c0,3.334-2.705,6.037-6.041,6.037c-3.334,0-6.039-2.703-6.039-6.037
		c0-3.338,2.704-6.041,6.039-6.041C414.838,20.961,417.543,23.664,417.543,27.002z"/>
	<path fill="#FF5848" d="M400.908,27.002c0,3.334-2.704,6.037-6.039,6.037s-6.039-2.703-6.039-6.037
		c0-3.338,2.704-6.041,6.039-6.041S400.908,23.664,400.908,27.002z"/>
	<path fill="#12CB35" d="M434.175,27.002c0,3.334-2.704,6.037-6.041,6.037c-3.334,0-6.038-2.703-6.038-6.037
		c0-3.338,2.704-6.041,6.038-6.041C431.471,20.961,434.175,23.664,434.175,27.002z"/>
	<g>
		<path fill="#B6B7BB" d="M423.623,113.508h72.588v10.764h-72.588V113.508z M434.258,158.85H773.17v10.763H434.258V158.85z
			 M434.258,136.881H736.82v10.764H434.258V136.881z M434.26,181.73h397.758v10.764H434.26V181.73z M434.258,202.862h213.64v10.764
			h-213.64V202.862z M434.256,225.178H736.82v8.606H434.256V225.178z M434.26,245.221h444.047v9.713H434.26V245.221z
			 M434.26,266.439h380.494v10.764H434.26V266.439z M434.26,287.752h408.738v10.764H434.26V287.752z M434.261,308.885h424.823
			v10.762H434.262L434.261,308.885z M434.258,327.168h327.145v10.764H434.258V327.168z"/>
	</g>
</g>
</svg>
